site/public/images/logo/github-logo.svg

<?xml version="1.0" encoding="UTF-8" standalone="no"?>
<svg xmlns="http://www.w3.org/2000/svg" height="33px" width="33px" version="1.1" xmlns:xlink="http://www.w3.org/1999/xlink" viewBox="0 0 33 33">
 <g fill="#161614">
  <path d="m16.608 0.455c-8.994 0-16.288 7.293-16.288 16.29 0 7.197 4.667 13.302 11.14 15.456 0.815 0.15 1.112-0.353 1.112-0.785 0-0.386-0.014-1.411-0.022-2.77-4.531 0.984-5.487-2.184-5.487-2.184-0.741-1.882-1.809-2.383-1.809-2.383-1.479-1.01 0.112-0.99 0.112-0.99 1.635 0.115 2.495 1.679 2.495 1.679 1.453 2.489 3.813 1.77 4.741 1.353 0.148-1.052 0.569-1.77 1.034-2.177-3.617-0.411-7.42-1.809-7.42-8.051 0-1.778 0.635-3.233 1.677-4.371-0.168-0.412-0.727-2.069 0.16-4.311 0 0 1.367-0.438 4.479 1.67 1.299-0.362 2.693-0.542 4.078-0.549 1.384 0.007 2.777 0.187 4.078 0.549 3.11-2.108 4.475-1.67 4.475-1.67 0.889 2.242 0.33 3.899 0.163 4.311 1.044 1.138 1.674 2.593 1.674 4.371 0 6.258-3.809 7.635-7.437 8.038 0.584 0.503 1.105 1.497 1.105 3.017 0 2.177-0.02 3.934-0.02 4.468 0 0.436 0.294 0.943 1.12 0.784 6.468-2.159 11.131-8.26 11.131-15.455 0-8.997-7.294-16.29-16.291-16.29"/>
 </g>
</svg>

<svg width="33px" height="33px" viewBox="0 0 33 33" version="1.1" xmlns="http://www.w3.org/2000/svg" xmlns:xlink="http://www.w3.org/1999/xlink">
	<g fill="#161614">
		<path d="M16.608,0.455 C7.614,0.455 0.32,7.748 0.32,16.745 C0.32,23.942 4.987,30.047 11.46,32.201 C12.275,32.351 12.572,31.848 12.572,31.416 C12.572,31.03 12.558,30.005 12.55,28.646 C8.019,29.63 7.063,26.462 7.063,26.462 C6.322,24.58 5.254,24.079 5.254,24.079 C3.775,23.069 5.366,23.089 5.366,23.089 C7.001,23.204 7.861,24.768 7.861,24.768 C9.314,27.257 11.674,26.538 12.602,26.121 C12.75,25.069 13.171,24.351 13.636,23.944 C10.019,23.533 6.216,22.135 6.216,15.893 C6.216,14.115 6.851,12.66 7.893,11.522 C7.725,11.11 7.166,9.453 8.053,7.211 C8.053,7.211 9.42,6.773 12.532,8.881 C13.831,8.519 15.225,8.339 16.61,8.332 C17.994,8.339 19.387,8.519 20.688,8.881 C23.798,6.773 25.163,7.211 25.163,7.211 C26.052,9.453 25.493,11.11 25.326,11.522 C26.37,12.66 27,14.115 27,15.893 C27,22.151 23.191,23.528 19.563,23.931 C20.147,24.434 20.668,25.428 20.668,26.948 C20.668,29.125 20.648,30.882 20.648,31.416 C20.648,31.852 20.942,32.359 21.768,32.2 C28.236,30.041 32.899,23.94 32.899,16.745 C32.899,7.748 25.605,0.455 16.608,0.455" />
	</g>
</svg>
